!!!!SEGMENT: pl-kk--kk-i-382--013-003_anonim--nro-4-agnus.krn
!!!cenid: 18xx:1477
!!!COM: Anonim
!!!COM-rismID: pe30004985
!!!CDT:
!!!CNT:
!!!OPR: Nro 4
!!!OTL: Agnus
!!!OMV: 006
!!!PDT:
!!!AGN: Sacred
!!!SMS-siglum: PL-Kk
!!!SMS-shelfmark: Kk.I.382
!!!SMS-shelfwork: 004-006 M
!!!SMS-variant:
!!!SMS-altvar:
!!!NIFC-rismSourceID: 1001139096
!!!NIFC-islandoraID: pl-kk:6162
!!!URL-pdf-islandora: https://repozytorium.nifc.pl/islandora/object/pl-kk%3A6162/datastream/PDF/view
!!!URL-scan: https://polish.musicsources.pl/pl/lokalizacje/galeria/rekopisy/5994 @EN{Scan on Polish Music Herritage in Open Access Website} @PL{Skany w portalu Dziedzictwo Muzyki Polskiej w otwartym dostępie}
!!!ONB-nifc: UWAGA: obsada: S/T 1, T 2, A/B 1, B 2. Agnus + Dona. Skan 0013, 0084-0085, 0158, 0229
!!!AIN: 1 alto 1 bass 2 tenor
!!!key:
**kern	**text	**dynam	**kern	**text	**kern	**text	**kern	**text
*part4	*part4	*part4	*part3	*part3	*part2	*part2	*part1	*part1
*staff4	*staff4	*	*staff3	*staff3	*staff2	*staff2	*staff1	*staff1
*Ibass	*	*	*Itenor	*	*Ialto	*	*Itenor	*
*I"Basso II	*	*	*I"Tenore II	*	*I"Alto vel Basso I	*	*I"Soprano vel. Tenore I	*
*I'B 2	*	*	*I'T 2	*	*I'A/B 1	*	*I'S/T 1	*
*group1	*	*	*group1	*	*group1	*	*group1	*
*clefF4	*	*	*clefC4	*	*clefC3	*	*clefC1	*
*k[]	*	*	*k[]	*	*k[]	*	*k[]	*
*C:	*	*	*C:	*	*C:	*	*C:	*
*M3/2	*	*	*M3/2	*	*M3/2	*	*M3/2	*
=1	=1	=1	=1	=1	=1	=1	=1	=1
*	*	*	*rscale:1/2	*	*	*	*rscale:1/2	*
*2\right	*	*	*2\right	*	*2\right	*	*2\right	*
!LO:TX:t=Agnus.	!	!	!LO:TX:t=Agnus	!	!LO:TX:t=Agnus.	!	!LO:TX:t=Agnus.	!
!	!	!	!LO:TX:t=P:problem=metrum 3/4 w tt.1-22	!	!	!	!LO:TX:t=P:problem=all\right&colon; global	!
!LO:TX:t=P:problem=all\right&colon; global	!	!	!LO:TX:t=P:problem=all\right&colon; global	!	!LO:TX:t=P:problem=all\right&colon; global	!	!LO:TX:t=P:problem=metrum 3/4 w tt.1-22	!
2C/	a-	.	1c	a-	1g	A-	1ee	a-
2E\	.	.	.	.	.	.	.	.
2G\	-gnus	.	2B\	-gnus	2f\	-gnus	2dd\	-gnus
=2	=2	=2	=2	=2	=2	=2	=2	=2
4c\	De-	.	2G/	De-	(4e\	De-	(4cc\L	De-
8G\L	.	.	.	.	4d\)	.	4b\)J	.
8E\J	.	.	.	.	.	.	.	.
2C/	-i	.	2G/	-i	2e\	-i	2cc\	-i
2G\	qui	.	2G/	qui	2e\	qui	2cc\	qui
=3	=3	=3	=3	=3	=3	=3	=3	=3
2G\	tol-	.	2G/	tol-	2e\	tol-	2cc\	tol-
2G\	-lis	.	2G/	-lis	(4d\	-lis	4b\L	.
.	.	.	.	.	4e\)	.	4cc\J	.
2G\	pe-	.	2G/	pec-	2f\	pec-	2dd\	.
=4	=4	=4	=4	=4	=4	=4	=4	=4
2G\	-ca-	.	2G/	-ca-	2f\	-ca-	2dd\	.
2G\	-ta	.	2G/	-ta	2e\	-ta	2cc\	-lis
2C/	pe-	.	2c\	pec-	2g\	pec-	2ee\	pec-
=5	=5	=5	=5	=5	=5	=5	=5	=5
(2C/	-ca-	.	1G	-ca-	(2g\	-ca-	(2ee\	-ca-
2F\)	.	.	.	.	2f\)	.	2dd\)	.
2F#X\	-ta	.	2G/	-ta	2e\	-ta	2cc\	-ta
!LO:LB:g=original	!	!	!	!	!LO:LB:g=original	!	!	!
=6	=6	=6	=6	=6	=6	=6	=6	=6
2G\	mun-	.	2G/	mun-	2e\	mun-	2cc\	mun-
2G\	-di	.	2G/	-di	2d\	-di	2b\	-di
!	!	!	!LO:TX:a:t=V&colon;S&colon;	!	!	!	!	!
2r	.	.	2r	.	2r	.	2r	.
!	!	!	!LO:PB:g=original	!	!	!	!LO:LB:g=original	!
=7	=7	=7	=7	=7	=7	=7	=7	=7
1G	mi-	.	1B	mi-	2r	.	2r	.
.	.	.	.	.	2g\	mi-	2b\	mi-
2G\	-se-	.	2B\	-se-	2g\	-se-	2b\	-se-
=8	=8	=8	=8	=8	=8	=8	=8	=8
1A	-re-	.	1c	-re-	(4g\	-re-	1cc	-re-
.	.	.	.	.	4f#X\	.	.	.
.	.	.	.	.	4e\	.	.	.
.	.	.	.	.	4f#\)	.	.	.
2A\	-re	.	2c\	-re	2f#\	-re	2cc\	-re
=9	=9	=9	=9	=9	=9	=9	=9	=9
1B	mi-	.	1d	mi-	2r	.	2r	.
.	.	.	.	.	2fn\	mi-	2dd\	mi-
2B\	-se-	.	2d\	-se-	2f\	-se-	2dd\	-se-
=10	=10	=10	=10	=10	=10	=10	=10	=10
1c	-re-	.	4d\L	-re-	(4f\	-re-	(4dd\L	-re-
.	.	.	4c\	.	4e\	.	4cc\	.
.	.	.	4B\	.	4d\	.	4b\	.
.	.	.	4c\J	.	4e\)	.	4cc\)J	.
2c\	-re	.	2c\	-re	2e\	-re	2cc\	-re
=11	=11	=11	=11	=11	=11	=11	=11	=11
1G	mi-	.	1B	mi-	1f	mi-	1dd	mi-
2c\	-se-	.	2G/	-se-	2e\	-se-	2cc\	-se-
=12	=12	=12	=12	=12	=12	=12	=12	=12
1G	-re-	.	1G	-re-	1d	-re-	(2b\	-re-
.	.	.	.	.	.	.	2dd\)	.
2E\	-re	.	2G/	-re	2e\	-re	2cc\	-re
!	!	!	!	!	!LO:LB:g=original	!	!	!
=13	=13	=13	=13	=13	=13	=13	=13	=13
(2F\	no-	.	2A/	no-	(2f\	no-	(2dd\	no-
1G)	.	.	1G	.	2e\	.	2cc\	.
.	.	.	.	.	2d\)	.	2b\)	.
!	!	!	!	!	!	!	!LO:LB:g=original	!
=14	=14	=14	=14	=14	=14	=14	=14	=14
1.C	-bis	.	1.G	-bis	1.e	-bis	1.cc	-bis
!LO:LB:g=original	!	!	!	!	!	!	!	!
=15	=15	=15	=15	=15	=15	=15	=15	=15
1G	mi-	.	1B	mi-	2r	.	2r	.
.	.	.	.	.	2g\	mi-	2b\	mi-
2G\	-se-	.	2B\	-se-	2g\	-se-	2b\	-se-
!	!	!	!LO:LB:g=original	!	!	!	!	!
=16	=16	=16	=16	=16	=16	=16	=16	=16
1A	-re-	.	1c	-re-	(4g\	-re-	1cc	-re-
.	.	.	.	.	4f#X\	.	.	.
.	.	.	.	.	4e\	.	.	.
.	.	.	.	.	4f#\)	.	.	.
2A\	-re	.	2c\	-re	2f#\	-re	2cc\	-re
=17	=17	=17	=17	=17	=17	=17	=17	=17
1B	mi-	.	1d	mi-	2r	.	2r	.
.	.	.	.	.	2fn\	mi-	2dd\	mi-
2B\	-se-	.	2d\	-se-	2f\	-se-	2dd\	-se-
=18	=18	=18	=18	=18	=18	=18	=18	=18
1c	-re-	.	4d\L	-re-	(4f\	-re-	(4dd\L	-re-
.	.	.	4c\	.	4e\	.	4cc\	.
.	.	.	4B\	.	4d\	.	4b\	.
.	.	.	4c\J	.	4e\)	.	4cc\)J	.
2c\	-re	.	2c\	-re	2e\	-re	2cc\	-re
=19	=19	=19	=19	=19	=19	=19	=19	=19
1G	mi-	.	1B	mi-	1f	mi-	1dd	mi-
2c\	-se-	.	2G/	-se-	2e\	-se-	2cc\	-se-
=20	=20	=20	=20	=20	=20	=20	=20	=20
1G	-re-	.	1G	-re-	1d	-re-	(2b\	-re-
.	.	.	.	.	.	.	2dd\)	.
2E\	-re	.	2G/	-re	2e\	-re	2cc\	-re
!	!	!	!	!	!LO:LB:g=original	!	!LO:LB:g=original	!
=21	=21	=21	=21	=21	=21	=21	=21	=21
(2F\	no-	.	2A/	no-	(2f\	no-	(2dd\	no-
1G)	.	.	1G	.	2e\	.	2cc\	.
.	.	.	.	.	2d\)	.	2b\)	.
=22	=22	=22	=22	=22	=22	=22	=22	=22
1.C	-bis.	.	1.G	-bis.	1.e	-bis	1.cc	-bis
*	*	*	*rscale:1	*	*	*	*rscale:1	*
!LO:LB:g=original	!	!	!	!	!	!	!	!
=23||	=23||	=23||	=23||	=23||	=23||	=23||	=23||	=23||
*M4/4	*	*	*M4/4	*	*M4/4	*	*M4/4	*
*met(c)	*	*	*met(c)	*	*met(c)	*	*met(c)	*
!LO:TX:a:t=P:problem=metrum C z kropką	!	!	!LO:TX:a:t=P:problem=metrum C z kropką	!	!LO:TX:a:t=P:problem=metrum C z kropką	!	!LO:TX:a:t=P:problem=metrum C z kropką w środku	!
(4C\	a-	.	2.G/	a-	2.e\	a-	2.cc\	a-
4D\)	.	.	.	.	.	.	.	.
(4E\	-gnus	.	.	.	.	.	.	.
4C\)	.	.	4G/	-gnus	4e\	-gnus	4cc\	-gnus
=24	=24	=24	=24	=24	=24	=24	=24	=24
(4G\	De-	.	2G/	De-	2d\	De-	2b\	De-
4A\)	.	.	.	.	.	.	.	.
4B\	-i	.	4G/	-i	4d\	-i	4b\	-i
4G\	qui	.	4G/	qui	4d\	qui	4b\	qui
!	!	!	!LO:LB:g=original	!	!	!	!	!
=25	=25	=25	=25	=25	=25	=25	=25	=25
4G\	tol-	.	4B\	tol-	4f\	tol-	4dd\	tol-
8G\	-lis	.	8B\	-lis	8f\	-lis	8dd\	-lis
8A\	pe-	.	8B\	pec-	8f\	pec-	8dd\	pec-
4B\	-ca-	.	4B\	-ca-	4f\	-ca-	4dd\	-ca-
4G\	-ta	.	4B\	-ta	4f\	-ta	4dd\	-ta
!	!	!	!	!	!	!	!LO:LB:g=original	!
=26	=26	=26	=26	=26	=26	=26	=26	=26
2c\	mun-	.	2G/	mun-	2e\	mun-	2cc\	mun-
2C/	-di	.	2G/	-di	2e\	-di	2cc\	-di
!	!	!	!	!	!LO:LB:g=original	!	!	!
=27	=27	=27	=27	=27	=27	=27	=27	=27
2A\	pe-	.	4r	.	4r	.	4r	.
.	.	.	4d\	pec-	4f#X\	pec-	4cc\	pec-
4A\	-ca-	.	4d\	-ca-	4f#\	-ca-	4cc\	-ca-
4A\	-ta	.	4d\	-ta	4f#\	-ta	4cc\	-ta
=28	=28	=28	=28	=28	=28	=28	=28	=28
2G\	mun-	.	2B\	mun-	2g\	mun-	2dd\	mun-
!	!	!	!	!	!LO:TX:a:t=Seque Doma V&colon;S&colon;	!	!	!
2G\	-di.	.	2B\	-di.	2g\	-di.	2dd\	-di.
!LO:LB:g=original	!	!	!LO:LB:g=original	!	!LO:PB:g=original	!	!LO:LB:g=original	!
=29||	=29||	=29||	=29||	=29||	=29||	=29||	=29||	=29||
*M2/2	*	*	*M2/2	*	*M2/2	*	*M2/2	*
*met(c|)	*	*	*met(c|)	*	*met(c)	*	*met(c)	*
!LO:TX:a:t=Dona	!	!	!LO:TX:a:t=P:problem=metrum C| z kropką	!	!LO:TX:a:t=P:problem=metrum C z kropką	!	!LO:TX:a:t=Dona	!
!LO:TX:a:t=P:problem=metrum C| z kropką	!	!	!LO:TX:a:t=Dona	!	!LO:TX:a:t=Dona.	!	!LO:TX:a:t=P:problem=metrum C z kropką w środku	!
2c\	Do-	.	2c\	Do-	2g\	Do-	2ee\	Do-
2G\	-na	.	2B\	-na	2fn\	-na	2dd\	-na
=30	=30	=30	=30	=30	=30	=30	=30	=30
2C/	no-	.	2G/	no-	2e\	no-	2cc\	no-
(4G\	-bis	.	(4B\	-bis	(4f\	-bis	(4dd\	-bis
4C/)	.	.	4c\)	.	4g\)	.	4ee\)	.
=31	=31	=31	=31	=31	=31	=31	=31	=31
1G	pa-	.	2B\	pa-	2f\	pa-	(2dd\	pa-
.	.	.	2G/	.	2d\	.	2b\)	.
=32	=32	=32	=32	=32	=32	=32	=32	=32
4C/	-cem	.	4G/	-cem	4e\	-cem	4cc\	-cem
4C/	da	.	4G/	da	4e\	da	4cc\	da
(4BB/	pa-	.	2G/	pa-	(4d\	pa-	(4b\	pa-
4C/)	.	.	.	.	4e\)	.	4cc\)	.
=33	=33	=33	=33	=33	=33	=33	=33	=33
2G\	-cem	.	2B\	-cem	2f\	-cem	2dd\	-cem
4G\	do-	.	4B\	do-	4g\	do-	4dd\	do-
4G\	-na	.	4B\	-na	4g\	-na	4dd\	-na
!	!	!	!	!	!	!	!LO:LB:g=original	!
=34	=34	=34	=34	=34	=34	=34	=34	=34
2c\	no-	.	2c\	no-	2g\	no-	2ee\	no-
(4G\	-bis	.	(4B\	-bis	(4f\	-bis	(4dd\	-bis
4E\)	.	.	4c\)	.	4e\)	.	4cc\)	.
!	!	!	!	!	!LO:LB:g=original	!	!	!
=35	=35	=35	=35	=35	=35	=35	=35	=35
(1G	pa-	.	1G	pa-	2d\	no-	2b\	no-
.	.	.	.	.	2e\	-bis	2cc\	-bis
=36	=36	=36	=36	=36	=36	=36	=36	=36
2G\	.	.	1d	.	(2d\	pa-	(2b\	pa-
2D\)	.	.	.	.	2c\)	.	2a\)	.
!LO:LB:g=original	!	!	!LO:LB:g=original	!	!	!	!	!
=37	=37	=37	=37	=37	=37	=37	=37	=37
2GG/	-cem	.	2d\	-cem	2B/	-cem	2g\	-cem
!LO:TX:a:t=P:problem=ozn. dynamiki zapisane na pięciolinii	!	!LO:DY:a:t=p.	!	!	!	!	!	!
(2GG/	do-	p	(2G/	do-	2r	.	(2g\	do-
=38	=38	=38	=38	=38	=38	=38	=38	=38
!	!	!	!	!	!LO:TX:b:t=1	!	!	!
2G\)	.	.	2g\)	.	1r	.	2gg\)	.
2F\	-na	.	2f\	-na	.	.	2ff\	-na
=39	=39	=39	=39	=39	=39	=39	=39	=39
2E\	no-	.	2e\	no-	2r	.	2ee\	no-
2E\	-bis	.	2e\	-bis	[2g\	do-	2ee\	-bis
=40	=40	=40	=40	=40	=40	=40	=40	=40
(2E\	pa-	.	(2e\	pa-	2g\]	.	(2ee\	pa-
2D\)	.	.	2d\)	.	2f\	-na	2dd\)	.
!	!	!	!	!	!	!	!LO:LB:g=original	!
=41	=41	=41	=41	=41	=41	=41	=41	=41
2C/	-cem	.	2c\	-cem	2e\	no-	2cc\	-cem
2C/	da	.	(2G/	do-	2e\	-bis	2cc\	do-
=42	=42	=42	=42	=42	=42	=42	=42	=42
(2C/	pa-	.	2g\)	.	(2e\	pa-	(2cc\	-na
2BB/)	.	.	2f\	-na	2d\)	.	2b\)	.
=43	=43	=43	=43	=43	=43	=43	=43	=43
2GG/	-cem	.	2e\	no-	2c/	-cem	2g\	no-
!	!	!LO:DY:a:t=f.	!	!	!	!	!	!
(2GG/	do-	f	2e\	-bis	[>2c/	do-	[2g\	-bis
!	!	!	!	!	!LO:LB:g=original	!	!	!
=44	=44	=44	=44	=44	=44	=44	=44	=44
2G\)	.	.	(2e\	pa-	(2c/]	-na	1g_	pa-
2F\	-na	.	2d\)	.	2B/)	.	.	.
=45	=45	=45	=45	=45	=45	=45	=45	=45
2E\	no-	.	2e\	-cem	2c\	no-	2g\]	-cem
2C/	-bis	.	2c\	do-	2g\	-bis	2g\	do-
!LO:LB:g=original	!	!	!	!	!	!	!	!
=46	=46	=46	=46	=46	=46	=46	=46	=46
(2F\	pa-	.	1c	-na	1f	pa-	1a	-na
2A\)	.	.	.	.	.	.	.	.
=47	=47	=47	=47	=47	=47	=47	=47	=47
2G\	-cem	.	1d	no-	1g	.	1b	no-
2B\	da	.	.	.	.	.	.	.
!	!	!	!LO:LB:g=original	!	!	!	!	!
=48	=48	=48	=48	=48	=48	=48	=48	=48
4c\	pa-	.	1G	-bis	1e	.	(1cc	-bis
4G\	.	.	.	.	.	.	.	.
4E\	.	.	.	.	.	.	.	.
4C/	.	.	.	.	.	.	.	.
=49	=49	=49	=49	=49	=49	=49	=49	=49
2G\	-cem	.	2B\	no-	1g	.	1dd)	pa-
2G\	do-	.	2B\	-bis	.	.	.	.
!	!	!	!	!	!	!	!LO:LB:g=original	!
=50	=50	=50	=50	=50	=50	=50	=50	=50
2c\	-na	.	1G	pa-	2g\	-cem	2ee\	-cem
4B\	no-	.	.	.	4g\	no-	(4dd\	da
4c\	-bis	.	.	.	8f\L	-bis	4cc\)	.
.	.	.	.	.	8e\J	.	.	.
=51	=51	=51	=51	=51	=51	=51	=51	=51
1G	pa-	.	1G	.	(2e\	pa-	(2cc\	pa-
.	.	.	.	.	2d\)	.	2b\)	.
=52	=52	=52	=52	=52	=52	=52	=52	=52
2C/	-cem	.	2G/	-cem	2e\	-cem	2cc\	-cem
2E\	da	.	2c\	da	2g\	do-	2ee\	da
!	!	!	!	!	!LO:LB:g=original	!	!	!
=53	=53	=53	=53	=53	=53	=53	=53	=53
(2D\	pa-	.	(2B\	pa-	1g	-na	(2dd\	pa-
2F\)	.	.	2d\)	.	.	.	2ff\)	.
=54	=54	=54	=54	=54	=54	=54	=54	=54
2E\	-cem	.	2c\	-cem	2g\	no-	2ee\	-cem
2C/	da	.	2c\	da	2g\	-bis	2ee\	da
=55	=55	=55	=55	=55	=55	=55	=55	=55
1G	pa-	.	(2c\	pa-	1g	pa-	1dd	pa-
.	.	.	2B\)	.	.	.	.	.
=56	=56	=56	=56	=56	=56	=56	=56	=56
1C	-cem.	.	1c	-cem.	1g	-cem.	1ee	-cem.
==	==	==	==	==	==	==	==	==
*-	*-	*-	*-	*-	*-	*-	*-	*-
!!!system-decoration: [(g1)]
!!!RDF**kern: >= above
!!!RDF**kern: <= below
!!!ENC: Anna Matuszewska
!!!END: 2021-02-04
!!!ENC: Andrzej Gręziak
!!!END: 2021-01-29
